projects/svn/images/sber.svg

<svg width="157" height="26" viewBox="0 0 157 26" fill="none" xmlns="http://www.w3.org/2000/svg">
<g clip-path="url(#clip0_1701_65494)">
<path d="M70.0523 7.48328L73.3182 5.04464H62.3844V19.6526H73.3182V17.2139H65.5083V13.4842H72.1822V11.0456H65.5083V7.48328H70.0523Z" fill="black"/>
<path d="M54.125 10.7348H50.3384V7.48326H56.397L59.6629 5.04462H47.2145V19.6526H53.7227C57.3673 19.6526 59.4736 17.979 59.4736 15.0622C59.4736 12.2649 57.5803 10.7348 54.125 10.7348ZM53.6044 17.2139H50.3384V13.1734H53.6044C55.5923 13.1734 56.5153 13.8429 56.5153 15.2056C56.5153 16.5684 55.5213 17.2139 53.6044 17.2139Z" fill="black"/>
<path d="M82.1695 5.04464H76.2292V19.6526H79.3532V15.5164H82.1932C85.9798 15.5164 88.3464 13.5082 88.3464 10.2805C88.3464 7.05293 85.9798 5.04464 82.1695 5.04464ZM82.0985 13.0778H79.3295V7.48328H82.0985C84.1101 7.48328 85.1988 8.48743 85.1988 10.2805C85.1988 12.0737 84.1101 13.0778 82.0985 13.0778Z" fill="black"/>
<path d="M41.8658 16.4967C41.0374 16.9509 40.1145 17.19 39.1678 17.19C36.3515 17.19 34.3162 15.1578 34.3162 12.3605C34.3162 9.56328 36.3515 7.53108 39.1678 7.53108C40.1855 7.50717 41.1794 7.84188 42.0078 8.43959L44.2561 6.76601L44.1141 6.62256C42.8124 5.45106 41.0611 4.85336 39.0731 4.85336C36.9195 4.85336 34.9552 5.59451 33.5352 6.93337C32.1153 8.32005 31.3106 10.2566 31.3579 12.2649C31.3343 14.2971 32.1153 16.2576 33.5352 17.6921C35.0262 19.1027 37.0142 19.8916 39.0495 19.8438C41.2978 19.8438 43.2621 19.0548 44.5874 17.6204L42.5758 16.1141L41.8658 16.4967Z" fill="black"/>
<path d="M125.904 5.06855V19.6765H129.028V13.6994H135.679V19.6765H138.803V5.06855H135.679V11.0695H129.028V5.06855H125.904ZM120.532 19.6765H123.822L117.716 5.06855H114.545L108.32 19.6765H111.468L112.722 16.7358H119.349L120.532 19.6765ZM113.669 14.2971L116.083 8.43961L118.355 14.2971H113.669ZM145.808 13.7711H147.748L152.529 19.6526H156.552L150.162 12.0976L155.748 5.04464H152.174L147.535 11.3086H145.808V5.04464H142.684V19.6526H145.808V13.7711ZM98.0019 10.7587V7.50719H106.167V5.06855H94.8779V19.6765H101.386C105.031 19.6765 107.137 18.0029 107.137 15.0861C107.137 12.2888 105.244 10.7587 101.788 10.7587H98.0019ZM98.0019 17.2378V13.1973H101.268C103.256 13.1973 104.179 13.8668 104.179 15.2295C104.179 16.5923 103.208 17.2617 101.268 17.2617H98.0019V17.2378Z" fill="black"/>
<path d="M21.5839 4.949C22.1519 5.69015 22.6252 6.50303 23.0275 7.36373L12.0937 15.5164L7.50244 12.5996V9.10903L12.07 12.0019L21.5839 4.949Z" fill="black"/>
<path d="M2.84012 12.3605C2.84012 12.1932 2.84012 12.0497 2.86379 11.8824L0.0948333 11.7389C0.0948333 11.9302 0.071167 12.1454 0.071167 12.3366C0.071167 15.6838 1.42015 18.7201 3.59744 20.9197L5.56175 18.9353C3.88144 17.2617 2.84012 14.9426 2.84012 12.3605Z" fill="black"/>
<path d="M12.0698 3.03632C12.2355 3.03632 12.3775 3.03632 12.5431 3.06023L12.6851 0.262964C12.4958 0.262964 12.2828 0.239056 12.0935 0.239056C8.78021 0.239056 5.77459 1.60183 3.59729 3.80138L5.56159 5.78577C7.21823 4.08828 9.53753 3.03632 12.0698 3.03632Z" fill="black"/>
<path d="M12.07 21.6848C11.9044 21.6848 11.7624 21.6848 11.5967 21.6608L11.4547 24.4581C11.644 24.4581 11.857 24.482 12.0464 24.482C15.3596 24.482 18.3653 23.1192 20.5426 20.9197L18.5783 18.9353C16.9216 20.6567 14.626 21.6848 12.07 21.6848Z" fill="black"/>
<path d="M17.2764 4.6621L19.6194 2.9168C17.5604 1.24322 14.9334 0.215164 12.0698 0.215164V3.01243C14.0105 3.03634 15.8091 3.63404 17.2764 4.6621Z" fill="black"/>
<path d="M24.0927 12.3605C24.0927 11.6194 24.0217 10.9021 23.9033 10.1849L21.3237 12.1214C21.3237 12.1932 21.3237 12.2888 21.3237 12.3605C21.3237 15.11 20.1404 17.5725 18.2708 19.27L20.1404 21.35C22.5544 19.1505 24.0927 15.9229 24.0927 12.3605Z" fill="black"/>
<path d="M12.0697 21.6847C9.34804 21.6847 6.91042 20.4893 5.23011 18.6006L3.17114 20.4893C5.37211 22.9519 8.54339 24.482 12.0697 24.482V21.6847Z" fill="black"/>
<path d="M5.89295 5.45108L4.02332 3.37106C1.58569 5.59453 0.0710449 8.79823 0.0710449 12.3606H2.84C2.84 9.63502 4.02332 7.14856 5.89295 5.45108Z" fill="black"/>
</g>
<defs>
<clipPath id="clip0_1701_65494">
<rect width="156.671" height="25.924" fill="white"/>
</clipPath>
</defs>
</svg>

<svg width="157" height="26" fill="none" xmlns="http://www.w3.org/2000/svg"><g clip-path="url(#clip0_1701_65494)" fill="#000"><path d="M70.052 7.483l3.266-2.438H62.384v14.608h10.934v-2.44h-7.81v-3.729h6.674v-2.438h-6.674V7.483h4.544zm-15.927 3.252h-3.787V7.483h6.059l3.266-2.438H47.215v14.608h6.508c3.644 0 5.75-1.674 5.75-4.59 0-2.798-1.893-4.328-5.348-4.328zm-.52 6.479h-3.267v-4.04h3.266c1.988 0 2.911.669 2.911 2.032 0 1.362-.994 2.008-2.91 2.008zM82.17 5.045h-5.94v14.608h3.123v-4.137h2.84c3.787 0 6.153-2.008 6.153-5.236 0-3.227-2.366-5.235-6.177-5.235zm-.072 8.033H79.33V7.483h2.77c2.011 0 3.1 1.004 3.1 2.798 0 1.793-1.089 2.797-3.1 2.797zm-40.232 3.419a5.6 5.6 0 01-2.698.693c-2.816 0-4.852-2.032-4.852-4.83 0-2.797 2.035-4.829 4.852-4.829 1.017-.024 2.011.31 2.84.909l2.248-1.674-.142-.143c-1.302-1.172-3.053-1.77-5.04-1.77-2.154 0-4.119.742-5.539 2.08a7.237 7.237 0 00-2.177 5.332 7.589 7.589 0 002.177 5.427c1.491 1.41 3.48 2.2 5.515 2.152 2.248 0 4.212-.79 5.537-2.224l-2.011-1.506-.71.383zm84.038-11.428v14.608h3.124v-5.978h6.651v5.978h3.124V5.069h-3.124v6h-6.651v-6h-3.124zm-5.372 14.608h3.29l-6.106-14.608h-3.171l-6.225 14.608h3.148l1.254-2.941h6.627l1.183 2.94zm-6.863-5.38l2.414-5.857 2.272 5.857h-4.686zm32.139-.526h1.94l4.781 5.882h4.023l-6.39-7.555 5.586-7.053h-3.574l-4.639 6.264h-1.727V5.045h-3.124v14.608h3.124V13.77zM98.002 10.76V7.507h8.165V5.07h-11.29v14.608h6.509c3.645 0 5.751-1.674 5.751-4.59 0-2.798-1.893-4.328-5.349-4.328h-3.786zm0 6.479v-4.04h3.266c1.988 0 2.911.669 2.911 2.031 0 1.363-.971 2.033-2.911 2.033h-3.266v-.024zM21.584 4.949a12.998 12.998 0 011.444 2.415l-10.934 8.152L7.502 12.6V9.109l4.568 2.893 9.514-7.053zM2.84 12.36c0-.167 0-.31.024-.478l-2.77-.143c0 .191-.023.406-.023.598a12.17 12.17 0 003.526 8.583l1.965-1.985a9.236 9.236 0 01-2.722-6.574zm9.23-9.324c.165 0 .307 0 .473.024l.142-2.797c-.19 0-.402-.024-.591-.024-3.314 0-6.32 1.363-8.497 3.562l1.965 1.985a9.092 9.092 0 016.508-2.75zm0 18.649c-.166 0-.308 0-.473-.024l-.142 2.797c.189 0 .402.024.591.024 3.314 0 6.32-1.363 8.497-3.562l-1.965-1.985c-1.656 1.722-3.952 2.75-6.508 2.75z"/><path d="M17.276 4.662l2.343-1.745C17.56 1.243 14.933.215 12.07.215v2.797c1.941.024 3.74.622 5.207 1.65zm6.817 7.698c0-.74-.071-1.458-.19-2.175l-2.58 1.936v.24a9.305 9.305 0 01-3.052 6.909l1.87 2.08a12.166 12.166 0 003.952-8.99zM12.07 21.685A9.129 9.129 0 015.23 18.6l-2.059 1.888c2.201 2.463 5.372 3.993 8.899 3.993v-2.797zM5.893 5.451l-1.87-2.08a12.119 12.119 0 00-3.952 8.99H2.84a9.344 9.344 0 013.053-6.91z"/></g><defs><clipPath id="clip0_1701_65494"><path fill="#fff" d="M0 0h156.671v25.924H0z"/></clipPath></defs></svg>
